X:4
T:Walzer 1870/75  G (5letras transposed)
%%MIDI program 21
R:waltz
M:3/4
L:1/4
K:G transpose=3 %%MIDI gchordon
"G"B,C^C | DGA | BGe | d3 | "D7"cFe | d3 |1 cDc | "G"B3 :|2 d^c/2d/2 e/2f/2 | 
"G"gzz |: "G"gd2 | gd2 | d/2e/2 d/2B/2 A/2G/2 | "D7"F!>!d2 | F!>!^d2 | F!>!e2 |1 e/2d/2 ^c/2d/2 f/2e/2 | "G"ed2 :|2 e/2d/2 ^c/2d/2 e/2d/2 | 
"G"Gzd || [L:1/8] "D7"f4ec | A2^GA Bc | "G"e4 dB | G2FG AB | "D7"d4cA | D2 ^CD EF | "G"A4GD | B,2GA Bc | 
"D7"f4ec | A2 ^GA Bc | "G"e4dB | G2FG AB | "D7"d4cA | D2^CD BA | ("G"G6 | G2)z2z2 |] 
% wz08985

